!!!OTL: Guangrongbang
!!!ARE: Asia, China,ÿHebei Changli
!! IV, 28
!!!SCT: C1914
!!!YEM: Copyright 1995, estate of Helmut Schaffrath.
**kern
*ICvox
*Ivox
*M2/4
*k[f#]
*G:
{8dd
8dd
8b
8dd
=1
8.ee
16gg
8ee
8dd
=2
8b
16ee
16gg
16ee
16dd
8b
=3
2a}
=4
{8dd
4e
8g
=5
8a
16dd
16b
4a
=6
16ee
16gg
16ee
16dd
8cc
8ee
=7
4dd
4dd}
=8
{8.e
16g
8a
8a
=9
4dd
8d
8f#
=10
8e
4d
8c#
=11
2d}
=12
{8g
8g
8e
8g
=13
8a
8a
8r
16b
16a
=14
8g
8g
8e
8g
=15
2a}
=16
{8dd
8b
4dd
=17
8ee
16ff#
16ee
8dd
8b
=18
8a
8dd
8b
8a
=19
4g
4g}
=20
{8a
8g
8a
8b
=21
4dd
4dd
=22
8.b
16gg
16ee
16dd
8b
=23
4a
4a}
=24
{8g
8d
8e
8g
=25
8.a
16b
8a
8g
=26
8.e
16g
8a
8a
=27
8dd
8dd
8d
8f#
=28
8e
4d
8c#
=29
2d}
==
!!!AGN: Xiaodiao, Xiaokanxi
!!!AMT: simple duple
!!!AIN: vox
!!!EED: Helmut Schaffrath
!!!EEV: 1.0
*-
